X:74
T:Sluskasl\aatten
O:Norway
C:Trad., Lars Berge, Suldal
M:2/2
L:1/8
K:D
%P:A
A |: "D"dAFA d2 d2 | dfed "A"c2 c2 | ceEF "Em"GBEF | "G"GABB "A"A2 A2 |
"D"AdFA d2 d2 | dfed "A"c2 c2 | "Em"ceEF "A7"GABc |[1 "D"d2 d2 d3 A :|[2"D"d2 d2 d3 c |]
%P:B
|: "G"B2 B2 g2 g2 | "D"f2 df (af)df | "A7"feef gece | "D"d2 df A3 (A|"G"B2) B2 "Em"g2 g2 |
"D"f2 df "Bm"(af)df | "Em" feef "A7"geBc |[1"D"d2 d2 d3 c :|[2"D"d2 d2 d3 z |]

